cached_logos/lfca-umweltschutz-e-v.svg

<svg xmlns="http://www.w3.org/2000/svg" role="img" viewBox="-3.18 -4.18 201.11 217.36"><title>LFCA Umweltschutz e.V. logo</title><g id="logo" fill="none" fill-rule="evenodd" stroke="none" stroke-width="1"><g id="Group-4" transform="translate(1)"><g id="Group" transform="translate(0 .106)"><path id="Fill-19" fill="#212121" d="M6.761 12.399L6.761 48.838 17.764 48.838 17.764 54.912 0.074 54.912 0.074 12.399z"/><path id="Fill-21" fill="#212121" d="M38.233 30.315L38.233 36.389 28.438 36.389 28.438 48.839 40.763 48.839 40.763 54.912 21.303 54.912 21.303 12.399 40.763 12.399 40.763 18.472 28.438 18.472 28.438 30.315z"/><path id="Fill-23" fill="#212121" d="M56.8681288,41.4293757 L53.701959,19.9304828 L50.5357892,41.4293757 L56.8681288,41.4293757 Z M58.8995063,54.9117323 L57.7636112,47.1990395 L49.6998586,47.1990395 L48.5650662,54.9117323 L42.5315883,54.9117323 L49.2212387,12.3994234 L58.8388517,12.3994234 L65.5296049,54.9117323 L58.8995063,54.9117323 Z"/><path id="Fill-25" fill="#212121" d="M77.7450275,48.8382249 L81.6385649,48.8382249 C83.8369409,48.8382249 85.1564303,47.7450609 85.1564303,44.7077466 L85.1564303,22.6022878 C85.1564303,19.5649736 83.8369409,18.4729307 81.6385649,18.4729307 L77.7450275,18.4729307 L77.7450275,48.8382249 Z M81.7649483,12.3994234 C88.6731363,12.3994234 92.0657778,16.103848 92.0657778,22.9061314 L92.0657778,44.4050243 C92.0657778,51.2061865 88.6731363,54.9117323 81.7649483,54.9117323 L70.8368395,54.9117323 L70.8368395,12.3994234 L81.7649483,12.3994234 Z"/><path id="Fill-27" fill="#212121" d="M112.535 30.315L112.535 36.389 102.739 36.389 102.739 48.839 115.064 48.839 115.064 54.912 95.604 54.912 95.604 12.399 115.064 12.399 115.064 18.472 102.739 18.472 102.739 30.315z"/><path id="Fill-29" fill="#212121" d="M125.42959,31.5297382 L128.098534,31.5297382 C130.644861,31.5297382 132.195347,30.4365453 132.195347,27.0358745 L132.195347,22.8447412 C132.195347,19.8084681 131.139917,18.4719697 128.719646,18.4719697 L125.42959,18.4719697 L125.42959,31.5297382 Z M132.258375,49.6890734 L132.258375,43.008824 C132.258375,39.0609962 130.893535,37.6034057 127.789125,37.6034057 L125.42959,37.6034057 L125.42959,54.9117323 L118.601951,54.9117323 L118.601951,12.3994234 L128.906437,12.3994234 C135.98275,12.3994234 139.022986,15.618456 139.022986,22.1776132 L139.022986,25.5177379 C139.022986,29.8905095 137.596264,32.7440232 134.554882,34.1410676 C137.968702,35.538112 139.086014,38.7571446 139.086014,43.1904622 L139.086014,49.7496194 C139.086014,51.8149131 139.147896,53.3330496 139.830889,54.9117323 L132.879486,54.9117323 C132.507049,53.8185394 132.258375,53.1514114 132.258375,49.6890734 L132.258375,49.6890734 Z"/><path id="Fill-31" fill="#212121" d="M152.279556,10.6280772 C159.204919,10.6280772 162.764384,14.5855635 162.764384,21.5128772 L162.764384,22.8739054 L156.033781,22.8739054 L156.033781,21.0801342 C156.033781,17.988134 154.739757,16.8132195 152.473122,16.8132195 C150.208877,16.8132195 148.914852,17.988134 148.914852,21.0801342 C148.914852,29.9861911 162.828906,31.6566476 162.828906,44.0257905 C162.828906,50.9531042 159.204919,54.9117323 152.213839,54.9117323 C145.225149,54.9117323 141.599967,50.9531042 141.599967,44.0257905 L141.599967,41.3665332 L148.33057,41.3665332 L148.33057,44.4585335 C148.33057,47.5505337 149.756028,48.6649326 152.020273,48.6649326 C154.285713,48.6649326 155.708782,47.5505337 155.708782,44.4585335 C155.708782,35.5524766 141.794728,33.8831618 141.794728,21.5128772 C141.794728,14.5855635 145.354193,10.6280772 152.279556,10.6280772"/><path id="Fill-33" fill="#212121" d="M110.923 82.656L110.923 88.73 102.291 88.73 102.291 106.281 95.604 106.281 95.604 63.768 113.295 63.768 113.295 69.842 102.291 69.842 102.291 82.656z"/><path id="Fill-35" fill="#212121" d="M127.447342,100.09563 C129.672086,100.09563 131.069591,98.9207154 131.069591,95.8275733 L131.069591,72.4491741 C131.069591,69.3571738 129.672086,68.1811176 127.447342,68.1811176 C125.222598,68.1811176 123.823919,69.3571738 123.823919,72.4491741 L123.823919,95.8275733 C123.823919,98.9207154 125.222598,100.09563 127.447342,100.09563 M127.447342,61.9971171 C134.311662,61.9971171 138.061811,65.9557452 138.061811,72.8819171 L138.061811,95.3948303 C138.061811,102.322144 134.311662,106.280772 127.447342,106.280772 C120.581848,106.280772 116.832873,102.322144 116.832873,95.3948303 L116.832873,72.8819171 C116.832873,65.9557452 120.581848,61.9971171 127.447342,61.9971171"/><path id="Fill-37" fill="#212121" d="M148.427606,82.898778 L151.097697,82.898778 C153.642878,82.898778 155.19451,81.8055851 155.19451,78.4049144 L155.19451,74.2137811 C155.19451,71.1763867 154.137933,69.8410096 151.717662,69.8410096 L148.427606,69.8410096 L148.427606,82.898778 Z M155.256392,101.058113 L155.256392,94.3767426 C155.256392,90.4289148 153.891551,88.9724455 150.787141,88.9724455 L148.427606,88.9724455 L148.427606,106.280772 L141.599967,106.280772 L141.599967,63.7684633 L151.904454,63.7684633 C158.980767,63.7684633 162.022149,66.9863746 162.022149,73.5455319 L162.022149,76.8856566 C162.022149,81.2595493 160.594281,84.113063 157.552899,85.5101075 C160.966718,86.9071519 162.084031,90.1261845 162.084031,94.559502 L162.084031,101.118659 C162.084031,103.183953 162.147059,104.702089 162.828906,106.280772 L155.877503,106.280772 C155.505065,105.187579 155.256392,104.51933 155.256392,101.058113 L155.256392,101.058113 Z"/><path id="Fill-39" fill="#212121" d="M26.6098846,145.439524 C26.6098846,152.090927 22.9858979,155.890788 15.9948179,155.890788 C9.00612764,155.890788 5.38094618,152.090927 5.38094618,145.439524 L5.38094618,123.82329 C5.38094618,117.171888 9.00612764,113.372026 15.9948179,113.372026 C22.9858979,113.372026 26.6098846,117.171888 26.6098846,123.82329 L26.6098846,127.86215 L19.8792823,127.86215 L19.8792823,123.407783 C19.8792823,120.438935 18.4550185,119.310817 16.1895788,119.310817 C13.9241391,119.310817 12.4998754,120.438935 12.4998754,123.407783 L12.4998754,145.855031 C12.4998754,148.823879 13.9241391,149.892795 16.1895788,149.892795 C18.4550185,149.892795 19.8792823,148.823879 19.8792823,145.855031 L19.8792823,139.91624 L26.6098846,139.91624 L26.6098846,145.439524 Z"/><path id="Fill-41" fill="#212121" d="M38.605 113.366L38.605 149.805 49.608 149.805 49.608 155.878 31.917 155.878 31.917 113.366z"/><path id="Fill-43" fill="#212121" d="M53.146 155.878L60.222 155.878 60.222 113.366 53.146 113.366z"/><path id="Fill-45" fill="#212121" d="M83.875 113.366L93.835 113.366 93.835 155.878 87.065 155.878 87.065 125.391 82.118 155.878 75.347 155.878 70.01 125.816 70.01 155.878 63.761 155.878 63.761 113.366 73.721 113.366 78.993 143.55z"/><path id="Fill-46" fill="#212121" d="M111.709138,142.396109 L108.543919,120.897216 L105.377597,142.396109 L111.709138,142.396109 Z M113.740612,155.878466 L112.605766,148.165773 L104.540524,148.165773 L103.405677,155.878466 L97.3730124,155.878466 L104.062984,113.366157 L113.681058,113.366157 L120.371029,155.878466 L113.740612,155.878466 Z"/><path id="Fill-47" fill="#212121" d="M139.831 113.366L139.831 119.44 132.65 119.44 132.65 155.878 125.781 155.878 125.781 119.44 118.602 119.44 118.602 113.366z"/><path id="Fill-48" fill="#212121" d="M162.069 131.282L162.069 137.356 152.273 137.356 152.273 149.806 164.598 149.806 164.598 155.878 145.138 155.878 145.138 113.366 164.598 113.366 164.598 119.439 152.273 119.439 152.273 131.282z"/><path id="Fill-49" fill="#212121" d="M44.483894,191.993803 L41.3189787,170.49491 L38.1529607,191.993803 L44.483894,191.993803 Z M46.5151741,205.476159 L45.3804362,197.763467 L37.3159675,197.763467 L36.1823323,205.476159 L30.1480409,205.476159 L36.8384733,162.963851 L46.4556252,162.963851 L53.1460575,205.476159 L46.5151741,205.476159 Z"/><path id="Fill-50" fill="#212121" d="M77.9131523,196.361564 C77.9131523,203.288878 74.2881748,207.247506 67.2986831,207.247506 C60.3091913,207.247506 56.6842139,203.288878 56.6842139,196.361564 L56.6842139,173.848651 C56.6842139,166.922479 60.3091913,162.963851 67.2986831,162.963851 C74.2881748,162.963851 77.9131523,166.922479 77.9131523,173.848651 L77.9131523,178.05505 L71.1817341,178.05505 L71.1817341,173.415908 C71.1817341,170.323907 69.7587452,169.148993 67.4922382,169.148993 C65.2281208,169.148993 63.8039372,170.323907 63.8039372,173.415908 L63.8039372,196.794307 C63.8039372,199.887449 65.2281208,201.000706 67.4922382,201.000706 C69.7587452,201.000706 71.1817341,199.887449 71.1817341,196.794307 L71.1817341,190.609165 L77.9131523,190.609165 L77.9131523,196.361564 Z"/><path id="Fill-51" fill="#212121" d="M100.911 162.964L100.911 169.037 93.731 169.037 93.731 205.476 86.862 205.476 86.862 169.037 79.682 169.037 79.682 162.964z"/><path id="Fill-52" fill="#212121" d="M104.449 205.476L111.526 205.476 111.526 162.964 104.449 162.964z"/><path id="Fill-53" fill="#212121" d="M125.678264,201.062363 C127.903008,201.062363 129.301686,199.887449 129.301686,196.794307 L129.301686,173.415908 C129.301686,170.323907 127.903008,169.147851 125.678264,169.147851 C123.45352,169.147851 122.056014,170.323907 122.056014,173.415908 L122.056014,196.794307 C122.056014,199.887449 123.45352,201.062363 125.678264,201.062363 M125.678264,162.963851 C132.542584,162.963851 136.292733,166.922479 136.292733,173.848651 L136.292733,196.361564 C136.292733,203.288878 132.542584,207.247506 125.678264,207.247506 C118.813943,207.247506 115.063794,203.288878 115.063794,196.361564 L115.063794,173.848651 C115.063794,166.922479 118.813943,162.963851 125.678264,162.963851"/><path id="Fill-54" fill="#212121" d="M145.852 205.476L139.831 205.476 139.831 162.964 148.224 162.964 155.098 188.41 155.098 162.964 161.06 162.964 161.06 205.476 154.186 205.476 145.852 174.686z"/><path id="Fill-55" fill="#40B3DA" d="M181.404227,15.9452618 C178.959491,15.9452618 176.978031,13.9611599 176.978031,11.5143346 C176.978031,9.06634076 178.959491,7.08223886 181.404227,7.08223886 C183.848962,7.08223886 185.829256,9.06634076 185.829256,11.5143346 C185.829256,13.9611599 183.848962,15.9452618 181.404227,15.9452618 M181.404227,0 C175.05375,0 169.905219,5.15422465 169.905219,11.5143346 C169.905219,17.8721075 175.05375,23.0275006 181.404227,23.0275006 C187.753537,23.0275006 192.903235,17.8721075 192.903235,11.5143346 C192.903235,5.15422465 187.753537,0 181.404227,0"/><path id="Fill-56" fill="#212121" d="M184.313299,199.989097 C186.364297,202.087125 186.325468,205.451466 184.230094,207.503673 C182.136107,209.55588 178.77602,209.518391 176.725022,207.421752 C174.676797,205.323724 174.712853,201.957994 176.808227,199.905787 C178.903601,197.85358 182.263687,197.89107 184.313299,199.989097"/></g></g></g></svg>

<svg xmlns="http://www.w3.org/2000/svg" role="img" viewBox="-3.18 -4.18 201.11 217.36"><title>LFCA Umweltschutz e.V. logo</title><g transform="translate(1) translate(0 .106)" fill="none" fill-rule="evenodd" stroke="none" stroke-width="1"><path fill="#212121" d="M6.761 12.399v36.439h11.003v6.074H.074V12.399z"/><path fill="#212121" d="M38.233 30.315v6.074h-9.795v12.45h12.325v6.073h-19.46V12.399h19.46v6.073H28.438v11.843z"/><path fill="#212121" d="M56.86813 41.42938l-3.16617-21.4989-3.16617 21.4989h6.33234zm2.03138 13.48235l-1.1359-7.7127h-8.06375l-1.1348 7.7127H42.5316l6.68965-42.5123h9.61761l6.69075 42.5123h-6.6301z"/><path fill="#212121" d="M77.74503 48.83822h3.89353c2.19838 0 3.51787-1.09316 3.51787-4.13047V22.60229c0-3.03732-1.31949-4.12936-3.51787-4.12936h-3.89353v30.3653zm4.01992-36.4388c6.90819 0 10.30083 3.70443 10.30083 10.50671v21.4989c0 6.80116-3.39264 10.5067-10.30083 10.5067H70.83684v-42.5123h10.9281z"/><path fill="#212121" d="M112.535 30.315v6.074h-9.796v12.45h12.325v6.073h-19.46V12.399h19.46v6.073h-12.325v11.843z"/><path fill="#212121" d="M125.42959 31.52974h2.66894c2.54633 0 4.09682-1.0932 4.09682-4.49387v-4.19113c0-3.03627-1.05543-4.37277-3.4757-4.37277h-3.29006v13.05777zm6.82878 18.15933v-6.68025c0-3.94782-1.36483-5.40541-4.46925-5.40541h-2.35953v17.30832h-6.82764v-42.5123h10.30449c7.07631 0 10.11655 3.21903 10.11655 9.77818v3.34013c0 4.37277-1.42673 7.22628-4.4681 8.62333 3.41381 1.39704 4.53112 4.61607 4.53112 9.0494v6.55915c0 2.0653.06189 3.58343.74488 5.16211h-6.9514c-.37244-1.0932-.62112-1.76032-.62112-5.22266z"/><path fill="#212121" d="M152.27956 10.62808c6.92536 0 10.48482 3.95748 10.48482 10.8848v1.36103h-6.7306v-1.79378c0-3.092-1.29402-4.26691-3.56066-4.26691-2.26424 0-3.55827 1.17491-3.55827 4.26691 0 8.90606 13.91406 10.57652 13.91406 22.94566 0 6.92731-3.624 10.88594-10.61507 10.88594-6.9887 0-10.61387-3.95863-10.61387-10.88594v-2.65926h6.7306v3.092c0 3.092 1.42546 4.2064 3.6897 4.2064 2.26544 0 3.68851-1.1144 3.68851-4.2064 0-8.90605-13.91405-10.57537-13.91405-22.94565 0-6.92732 3.55946-10.8848 10.48483-10.8848"/><path fill="#212121" d="M110.923 82.656v6.074h-8.632v17.551h-6.687V63.768h17.691v6.074h-11.004v12.814z"/><path fill="#212121" d="M127.44734 100.09563c2.22475 0 3.62225-1.17491 3.62225-4.26806v-23.3784c0-3.092-1.3975-4.26805-3.62225-4.26805-2.22474 0-3.62342 1.17605-3.62342 4.26805v23.3784c0 3.09315 1.39868 4.26806 3.62342 4.26806m0-38.09851c6.86432 0 10.61447 3.95863 10.61447 10.8848v22.51291c0 6.92731-3.75015 10.88594-10.61447 10.88594-6.8655 0-10.61447-3.95863-10.61447-10.88594V72.88192c0-6.92617 3.74898-10.8848 10.61447-10.8848"/><path fill="#212121" d="M148.4276 82.89878h2.6701c2.54518 0 4.09681-1.0932 4.09681-4.49387v-4.19113c0-3.0374-1.05658-4.37277-3.47685-4.37277h-3.29005v13.05777zm6.8288 18.15933v-6.68137c0-3.94783-1.36485-5.4043-4.46926-5.4043h-2.35953v17.30833h-6.82764v-42.5123h10.30448c7.07632 0 10.1177 3.2179 10.1177 9.77706v3.34013c0 4.37389-1.42787 7.2274-4.46925 8.62445 3.41382 1.39704 4.53113 4.61607 4.53113 9.0494v6.55915c0 2.0653.06303 3.58343.74488 5.16211h-6.9514c-.37244-1.0932-.62112-1.76144-.62112-5.22266z"/><path fill="#212121" d="M26.60988 145.43952c0 6.6514-3.62398 10.45127-10.61506 10.45127-6.9887 0-10.61387-3.79986-10.61387-10.45127V123.8233c0-6.6514 3.62518-10.45126 10.61387-10.45126 6.99108 0 10.61506 3.79986 10.61506 10.45126v4.03886h-6.7306v-4.45437c0-2.96885-1.42426-4.09696-3.6897-4.09696s-3.6897 1.12811-3.6897 4.09696v22.44725c0 2.96885 1.42426 4.03777 3.6897 4.03777s3.6897-1.06892 3.6897-4.03777v-5.93879h6.7306v5.52328z"/><path fill="#212121" d="M38.605 113.366v36.439h11.003v6.073H31.917v-42.512z"/><path fill="#212121" d="M53.146 155.878h7.076v-42.512h-7.076z"/><path fill="#212121" d="M83.875 113.366h9.96v42.512h-6.77v-30.487l-4.947 30.487h-6.771l-5.337-30.062v30.062h-6.249v-42.512h9.96l5.272 30.184z"/><path fill="#212121" d="M111.70914 142.3961l-3.16522-21.49888-3.16632 21.49889h6.33154zm2.03147 13.48237l-1.13484-7.7127h-8.06525l-1.13484 7.7127H97.373l6.68997-42.51231h9.61808l6.68997 42.5123h-6.63042z"/><path fill="#212121" d="M139.831 113.366v6.074h-7.181v36.438h-6.869V119.44h-7.179v-6.074z"/><path fill="#212121" d="M162.069 131.282v6.074h-9.796v12.45h12.325v6.072h-19.46v-42.512h19.46v6.073h-12.325v11.843z"/><path fill="#212121" d="M44.4839 191.9938l-3.16492-21.49889-3.16602 21.4989h6.33093zm2.03127 13.48236l-1.13473-7.7127h-8.06447l-1.13364 7.7127h-6.03429l6.69043-42.5123h9.61716l6.69043 42.5123h-6.63089z"/><path fill="#212121" d="M77.91315 196.36156c0 6.92732-3.62498 10.88595-10.61447 10.88595-6.98949 0-10.61447-3.95863-10.61447-10.88595v-22.5129c0-6.92618 3.62498-10.8848 10.61447-10.8848 6.9895 0 10.61447 3.95862 10.61447 10.8848v4.20639h-6.73142v-4.63914c0-3.092-1.42298-4.26692-3.6895-4.26692-2.2641 0-3.6883 1.17492-3.6883 4.26692v23.3784c0 3.09314 1.4242 4.2064 3.6883 4.2064 2.26652 0 3.6895-1.11326 3.6895-4.2064v-6.18515h6.73142v5.7524z"/><path fill="#212121" d="M100.911 162.964v6.073h-7.18v36.439h-6.869v-36.439h-7.18v-6.073z"/><path fill="#212121" d="M104.449 205.476h7.077v-42.512h-7.077z"/><path fill="#212121" d="M125.67826 201.06236c2.22475 0 3.62343-1.17491 3.62343-4.26805v-23.3784c0-3.092-1.39868-4.26806-3.62343-4.26806-2.22474 0-3.62225 1.17606-3.62225 4.26806v23.3784c0 3.09314 1.39751 4.26805 3.62225 4.26805m0-38.0985c6.86432 0 10.61447 3.95862 10.61447 10.8848v22.5129c0 6.92732-3.75015 10.88595-10.61447 10.88595-6.86432 0-10.61447-3.95863-10.61447-10.88595v-22.5129c0-6.92618 3.75015-10.8848 10.61447-10.8848"/><path fill="#212121" d="M145.852 205.476h-6.021v-42.512h8.393l6.874 25.446v-25.446h5.962v42.512h-6.874l-8.334-30.79z"/><path fill="#40B3DA" d="M181.40423 15.94526c-2.44474 0-4.4262-1.9841-4.4262-4.43093 0-2.44799 1.98146-4.4321 4.4262-4.4321 2.44473 0 4.42503 1.98411 4.42503 4.4321 0 2.44683-1.9803 4.43093-4.42503 4.43093m0-15.94526c-6.35048 0-11.49901 5.15422-11.49901 11.51433 0 6.35778 5.14853 11.51317 11.499 11.51317 6.34932 0 11.49901-5.1554 11.49901-11.51317 0-6.3601-5.1497-11.51433-11.499-11.51433"/><path fill="#212121" d="M184.3133 199.9891c2.051 2.09802 2.01217 5.46237-.0832 7.51457-2.094 2.05221-5.45408 2.01472-7.50508-.08192-2.04822-2.09803-2.01217-5.46376.0832-7.51596 2.09538-2.05221 5.45547-2.01472 7.50508.0833"/></g></svg>
